X: 10381
Q: "Solemnly slow."
M: C
L: 1/16
K: G
d2(ef) g3a g3dB2d2 | B3AB2^d2 e4 z2Bc |\
d2(ef) g3a g3f e2(fg) | (d2B2)(A2G2) E4 z2E/D/E/F/ |\
|: (GA)B2 |\
c3d e3^c d2D2D2e2 | (dB3) A4 G4 z2d/e/f |\
g3a b3a g3dB2d2 | B3AB2^d2 {d}e4 z2g/f/g/a/ |\
b3ag3f g3f e2fg | (d2B2)(A2G2) E4 z2D/E/F |\
(G3D)(E2G2) {c}e4 Hg4 | d2B2 A4 {GA}G4 |]


